static/images/past-sponsors/oss.svg

<svg fill="none" height="60" viewBox="0 0 302 60" width="302" xmlns="http://www.w3.org/2000/svg"><g fill="#3373ba"><path d="m148.631 8.06035c.007 1.57337-.453 3.11345-1.322 4.42505-.869 1.3117-2.108 2.3359-3.559 2.9429-1.452.6069-3.051.7694-4.595.4668s-2.963-1.0567-4.078-2.1667c-1.115-1.1101-1.876-2.5261-2.185-4.06874-.31-1.54263-.155-3.14243.446-4.59672.6-1.4543 1.619-2.69763 2.927-3.5725 1.307-.874871 2.845-1.341897 4.419-1.341913 1.043-.010145 2.078.18731 3.045.580879.966.393574 1.845.975394 2.584 1.711634.74.73623 1.326 1.61218 1.724 2.57688.398.96471.6 1.9989.594 3.04243zm-14.01-.02547c0 3.56622 2.548 6.26632 6.078 6.26632 3.531 0 6.052-2.695 6.052-6.26632 0-3.57127-2.598-6.21534-6.052-6.21534s-6.068 2.66444-6.068 6.21534z"/><path d="m162.142 4.83551c0 2.59821-1.88 4.4781-4.896 4.4781h-3.566v6.39879h-1.809v-15.283674h5.38c3.011-.025473 4.891 1.828944 4.891 4.406784zm-8.467-2.8071v5.63966h3.525c2.038 0 3.057-1.18193 3.057-2.83256 0-1.65064-1.044-2.82748-3.057-2.82748z"/><path d="m174.97 2.02841h-7.999v4.68698h6.114v1.62007h-6.114v5.75684h8.284v1.6201h-10.097v-15.283674h9.812z"/><path d="m190.488.403249v15.563851h-.647l-9.746-11.75823v11.50343h-1.809v-15.563779h.652l9.741 11.783679v-11.528951z"/><path d="m142.981 24.5361-1.319 1.0189c-.378-.5875-.896-1.0714-1.508-1.4077-.613-.3363-1.299-.5144-1.997-.518-1.417 0-2.716.7183-2.716 2.2263 0 1.3959 1.07 1.9053 2.461 2.5778l1.691.8101c2.227 1.0698 3.566 2.2059 3.566 4.2692 0 2.5473-2.114 4.2692-4.941 4.2692-1.149.0035-2.277-.3003-3.269-.8799s-1.81-1.4138-2.371-2.4163l1.345-1.0189c.932 1.4163 2.298 2.6237 4.269 2.6237 1.809 0 3.088-1.0189 3.088-2.5472 0-1.4163-1.045-1.9716-2.548-2.69l-1.717-.8151c-1.788-.8559-3.454-1.9461-3.454-4.1011 0-2.4403 2.13-3.9941 4.616-3.9941.954-.0075 1.895.2263 2.735.6797.84.4533 1.552 1.1115 2.069 1.9134z"/><path d="m161.587 29.8497c.006 1.5727-.455 3.1119-1.324 4.4226-.869 1.3108-2.108 2.3342-3.559 2.9407s-3.049.7689-4.593.4665c-1.543-.3024-2.962-1.0559-4.077-2.1651s-1.876-2.5243-2.186-4.0661c-.31-1.5419-.156-3.1411.443-4.5952.599-1.4542 1.616-2.6979 2.922-3.5738s2.843-1.3445 4.416-1.3465c1.045-.0115 2.081.1851 3.049.5784.968.3932 1.848.9753 2.589 1.7122s1.327 1.614 1.726 2.5799c.398.966.6 2.0016.594 3.0464zm-14.01-.0255c0 3.5662 2.547 6.2663 6.077 6.2663 3.531 0 6.053-2.6899 6.053-6.2663 0-3.5763-2.599-6.2153-6.053-6.2153s-6.077 2.6695-6.077 6.2153z"/><path d="m176.758 31.429c0 4.0757-2.598 6.3325-6.057 6.3325-3.46 0-6.114-2.2518-6.114-6.3325v-9.2364h1.809v9.3485c0 3.0873 1.9 4.5494 4.289 4.5494 2.39 0 4.249-1.4621 4.249-4.5494v-9.3485h1.809z"/><path d="m190.631 37.5068-4.759-6.4038h-3.27v6.4038h-1.809v-15.3142h5.38c3.016 0 4.896 1.8595 4.896 4.4323.027.9668-.276 1.9141-.86 2.6856-.583.7714-1.412 1.321-2.35 1.5581l4.87 6.6229zm-8.029-8.0494h3.505c2.037 0 3.082-1.1615 3.082-2.8071 0-1.6455-1.065-2.8325-3.082-2.8325h-3.505z"/><path d="m208.186 25.2341-1.345 1.0647c-.537-.8323-1.276-1.5152-2.148-1.9855s-1.849-.7126-2.839-.7044c-.817-.0101-1.627.1454-2.381.4571-.755.3117-1.439.7731-2.01 1.3564s-1.019 1.2763-1.315 2.0373c-.296.7609-.435 1.5739-.408 2.39-.027.8161.112 1.6291.408 2.3901.296.7609.744 1.4539 1.315 2.0372s1.255 1.0447 2.01 1.3564c.754.3117 1.564.4672 2.381.4571.991.0091 1.968-.2327 2.84-.7031.872-.4703 1.611-1.1538 2.147-1.9868l1.345 1.0648c-.695 1.0407-1.641 1.8886-2.752 2.4649-1.111.5764-2.35.8623-3.601.8312-1.039 0-2.067-.2046-3.027-.6022s-1.832-.9804-2.567-1.7151-1.318-1.6069-1.715-2.5668c-.398-.9599-.602-1.9887-.602-3.0277s.204-2.0678.602-3.0277c.397-.9599.98-1.8321 1.715-2.5668s1.607-1.3175 2.567-1.7151 1.988-.6022 3.027-.6022c1.251-.0254 2.487.263 3.597.8388s2.057 1.4207 2.756 2.4574z"/><path d="m221.269 23.8178h-7.998v4.687h6.113v1.6251h-6.113v5.7517h8.278v1.6252h-10.092v-15.3142h9.812z"/><path d="m143.445 46.7942-2.665 2.0378c-.698-1.0189-1.37-1.6201-2.547-1.6201-.79 0-1.365.2751-1.365.9731 0 .5807.367.8559 1.319 1.2532l1.763.7438c2.547 1.0648 3.923 2.3639 3.923 4.6157 0 3.016-2.461 4.7787-5.604 4.7787-2.807 0-5.013-1.3705-6.114-3.4338l2.695-2.0378c.739 1.0189 1.692 1.9716 3.409 1.9716 1.064 0 1.574-.3719 1.574-1.1157s-.484-.9476-1.529-1.4112l-1.574-.6979c-2.435-1.0648-3.877-2.4607-3.877-4.6157 0-2.7358 2.252-4.5239 5.36-4.5239 2.659-.0051 4.35 1.3194 5.232 3.0822z"/><path d="m156.782 47.5838h-6.623v2.1092h4.733v3.342h-4.733v2.6644h6.914v3.5968h-10.903v-15.2837h10.612z"/><path d="m173.696 47.8131-3.056 2.0378c-.927-1.5742-2.181-2.5014-3.989-2.5014-2.436 0-4.178 1.7168-4.178 4.2896 0 2.5727 1.742 4.2437 4.178 4.2437 1.808 0 3.056-.9272 3.989-2.5065l3.056 2.0684c-.672 1.272-1.686 2.3307-2.929 3.0563-1.242.7256-2.663 1.0893-4.101 1.0499-4.616 0-8.258-3.4133-8.258-7.9373s3.642-7.9322 8.283-7.9322c1.437-.0334 2.855.3359 4.093 1.066 1.238.7302 2.247 1.7921 2.912 3.0657z"/><path d="m189.423 52.8006c0 4.1062-2.899 6.7758-6.776 6.7758s-6.77-2.6696-6.77-6.7758v-8.8135h3.989v9.1141c-.016.3756.044.7506.176 1.1024.133.3519.336.6732.596.9447.26.2714.572.4875.918.6351s.718.2236 1.094.2236.748-.076 1.094-.2236.658-.3637.918-.6351c.26-.2715.463-.5928.595-.9447.133-.3518.193-.7268.177-1.1024v-9.1141h3.989z"/><path d="m201.482 59.2962-3.434-4.7583h-1.645v4.7532h-4.01v-15.2837h6.007c3.362 0 5.915 2.0379 5.915 5.2627.02.8757-.193 1.741-.618 2.5073-.424.7662-1.044 1.406-1.797 1.8536l4.04 5.6855zm-5.095-8.2328h2.038c.477 0 .935-.1895 1.272-.5267.337-.3373.527-.7947.527-1.2717 0-.4769-.19-.9344-.527-1.2716-.337-.3373-.795-.5268-1.272-.5268h-2.038z"/><path d="m212.084 59.2962h-3.989v-15.2837h3.989z"/><path d="m227.597 47.5838h-4.585v11.7175h-3.989v-11.7175h-4.585v-3.5967h13.159z"/><path d="m238.295 53.4272v5.869h-3.994v-5.8231l-5.258-9.486h4.407l2.853 5.3339 2.853-5.3339h4.387z"/></g><path d="m98.9439 22.7887-9.3689-5.4104c-.3872-.2236-.8265-.3413-1.2736-.3413s-.8864.1177-1.2736.3413l-9.3689 5.4104c-.3865.2231-.7076.5439-.9311.9301-.2235.3863-.3416.8245-.3425 1.2707v10.8208c0 .4472.1177.8864.3412 1.2736.2236.3872.5452.7088.9324.9324l9.3689 5.4104c.3872.2235.8265.3412 1.2736.3412s.8864-.1177 1.2736-.3412l9.3689-5.4104c.3901-.2217.7147-.5424.941-.9297.2261-.3874.3461-.8276.3481-1.2763v-10.8208c-.003-.4477-.123-.887-.3494-1.2733-.2263-.3864-.5504-.7063-.9397-.9275z" fill="#f89624"/><path d="m115.593.1689h-54.5882c-.6756 0-1.3235.268372-1.8012.746078-.4777.477702-.7461 1.125612-.7461 1.801192v54.58803c0 .6756.2684 1.3235.7461 1.8012s1.1256.7461 1.8012.7461h22.9254v-7.5807c0-.4471-.1177-.8864-.3413-1.2736-.2235-.3872-.5451-.7088-.9323-.9323l-12.9452-7.4585c-.3873-.2235-.7088-.5451-.9324-.9323s-.3413-.8265-.3413-1.2736v-19.9961c0-.4471.1177-.8864.3413-1.2736s.5451-.7087.9324-.9323l17.3214-9.99551c.3872-.22357.8265-.34127 1.2736-.34127.4472 0 .8864.1177 1.2737.34127l17.3219 9.99551c.384.2255.702.5479.923.935.221.387.336.8253.335 1.2709v19.9961c0 .4471-.118.8864-.341 1.2736-.224.3872-.546.7088-.933.9323l-13.159 7.596c-.3872.2236-.7087.5451-.9323.9323-.2236.3873-.3413.8265-.3413 1.2736v7.4432h23.1396c.675 0 1.323-.2684 1.801-.7461s.746-1.1256.746-1.8012v-54.58803c0-.67558-.268-1.32349-.746-1.801192-.478-.477706-1.126-.746078-1.801-.746078z" fill="#f89624"/></svg>

<svg width="302" height="60" viewBox="0 0 302 60" fill="none" xmlns="http://www.w3.org/2000/svg">
<path d="M148.631 8.06035C148.638 9.63372 148.178 11.1738 147.309 12.4854C146.44 13.7971 145.201 14.8213 143.75 15.4283C142.298 16.0352 140.699 16.1977 139.155 15.8951C137.611 15.5925 136.192 14.8384 135.077 13.7284C133.962 12.6183 133.201 11.2023 132.892 9.65966C132.582 8.11703 132.737 6.51723 133.338 5.06294C133.938 3.60864 134.957 2.36531 136.265 1.49044C137.572 0.615569 139.11 0.148543 140.684 0.148527C141.727 0.138382 142.762 0.335837 143.729 0.729406C144.695 1.12298 145.574 1.7048 146.313 2.44104C147.053 3.17727 147.639 4.05322 148.037 5.01792C148.435 5.98263 148.637 7.01682 148.631 8.06035ZM134.621 8.03488C134.621 11.6011 137.169 14.3012 140.699 14.3012C144.23 14.3012 146.751 11.6062 146.751 8.03488C146.751 4.46361 144.153 1.81954 140.699 1.81954C137.245 1.81954 134.631 4.48398 134.631 8.03488H134.621Z" fill="#3373BA"/>
<path d="M162.142 4.83551C162.142 7.43372 160.262 9.31361 157.246 9.31361H153.68V15.7124H151.871V0.428726H157.251C160.262 0.403253 162.142 2.25767 162.142 4.83551ZM153.675 2.02841V7.66807H157.2C159.238 7.66807 160.257 6.48614 160.257 4.83551C160.257 3.18487 159.213 2.00803 157.2 2.00803L153.675 2.02841Z" fill="#3373BA"/>
<path d="M174.97 2.02841H166.971V6.71539H173.085V8.33546H166.971V14.0923H175.255V15.7124H165.158V0.428726H174.97V2.02841Z" fill="#3373BA"/>
<path d="M190.488 0.403249V15.9671H189.841L180.095 4.20887V15.7123H178.286V0.148521H178.938L188.679 11.9322V0.403249H190.488Z" fill="#3373BA"/>
<path d="M142.981 24.5361L141.662 25.555C141.284 24.9675 140.766 24.4836 140.154 24.1473C139.541 23.811 138.855 23.6329 138.157 23.6293C136.74 23.6293 135.441 24.3476 135.441 25.8556C135.441 27.2515 136.511 27.7609 137.902 28.4334L139.593 29.2435C141.82 30.3133 143.159 31.4494 143.159 33.5127C143.159 36.06 141.045 37.7819 138.218 37.7819C137.069 37.7854 135.941 37.4816 134.949 36.902C133.957 36.3224 133.139 35.4882 132.578 34.4857L133.923 33.4668C134.855 34.8831 136.221 36.0905 138.192 36.0905C140.001 36.0905 141.28 35.0716 141.28 33.5433C141.28 32.127 140.235 31.5717 138.732 30.8533L137.015 30.0382C135.227 29.1823 133.561 28.0921 133.561 25.9371C133.561 23.4968 135.691 21.943 138.177 21.943C139.131 21.9355 140.072 22.1693 140.912 22.6227C141.752 23.076 142.464 23.7342 142.981 24.5361Z" fill="#3373BA"/>
<path d="M161.587 29.8497C161.593 31.4224 161.132 32.9616 160.263 34.2723C159.394 35.5831 158.155 36.6065 156.704 37.213C155.253 37.8195 153.655 37.9819 152.111 37.6795C150.568 37.3771 149.149 36.6236 148.034 35.5144C146.919 34.4052 146.158 32.9901 145.848 31.4483C145.538 29.9064 145.692 28.3072 146.291 26.8531C146.89 25.3989 147.907 24.1552 149.213 23.2793C150.519 22.4034 152.056 21.9348 153.629 21.9328C154.674 21.9213 155.71 22.1179 156.678 22.5112C157.646 22.9044 158.526 23.4865 159.267 24.2234C160.008 24.9603 160.594 25.8374 160.993 26.8033C161.391 27.7693 161.593 28.8049 161.587 29.8497ZM147.577 29.8242C147.577 33.3904 150.124 36.0905 153.654 36.0905C157.185 36.0905 159.707 33.4006 159.707 29.8242C159.707 26.2479 157.108 23.6089 153.654 23.6089C150.2 23.6089 147.577 26.2784 147.577 29.8242Z" fill="#3373BA"/>
<path d="M176.758 31.429C176.758 35.5047 174.16 37.7615 170.701 37.7615C167.241 37.7615 164.587 35.5097 164.587 31.429V22.1926H166.396V31.5411C166.396 34.6284 168.296 36.0905 170.685 36.0905C173.075 36.0905 174.934 34.6284 174.934 31.5411V22.1926H176.743L176.758 31.429Z" fill="#3373BA"/>
<path d="M190.631 37.5068L185.872 31.103H182.602V37.5068H180.793V22.1926H186.173C189.189 22.1926 191.069 24.0521 191.069 26.6249C191.096 27.5917 190.793 28.539 190.209 29.3105C189.626 30.0819 188.797 30.6315 187.859 30.8686L192.729 37.4915L190.631 37.5068ZM182.602 29.4574H186.107C188.144 29.4574 189.189 28.2959 189.189 26.6503C189.189 25.0048 188.124 23.8178 186.107 23.8178H182.602V29.4574Z" fill="#3373BA"/>
<path d="M208.186 25.2341L206.841 26.2988C206.304 25.4665 205.565 24.7836 204.693 24.3133C203.821 23.843 202.844 23.6007 201.854 23.6089C201.037 23.5988 200.227 23.7543 199.473 24.066C198.718 24.3777 198.034 24.8391 197.463 25.4224C196.892 26.0057 196.444 26.6987 196.148 27.4597C195.852 28.2206 195.713 29.0336 195.74 29.8497C195.713 30.6658 195.852 31.4788 196.148 32.2398C196.444 33.0007 196.892 33.6937 197.463 34.277C198.034 34.8603 198.718 35.3217 199.473 35.6334C200.227 35.9451 201.037 36.1006 201.854 36.0905C202.845 36.0996 203.822 35.8578 204.694 35.3874C205.566 34.9171 206.305 34.2336 206.841 33.4006L208.186 34.4654C207.491 35.5061 206.545 36.354 205.434 36.9303C204.323 37.5067 203.084 37.7926 201.833 37.7615C200.794 37.7615 199.766 37.5569 198.806 37.1593C197.846 36.7617 196.974 36.1789 196.239 35.4442C195.504 34.7095 194.921 33.8373 194.524 32.8774C194.126 31.9175 193.922 30.8887 193.922 29.8497C193.922 28.8107 194.126 27.7819 194.524 26.822C194.921 25.8621 195.504 24.9899 196.239 24.2552C196.974 23.5205 197.846 22.9377 198.806 22.5401C199.766 22.1425 200.794 21.9379 201.833 21.9379C203.084 21.9125 204.32 22.2009 205.43 22.7767C206.54 23.3525 207.487 24.1974 208.186 25.2341Z" fill="#3373BA"/>
<path d="M221.269 23.8178H213.271V28.5048H219.384V30.1299H213.271V35.8816H221.549V37.5068H211.457V22.1926H221.269V23.8178Z" fill="#3373BA"/>
<path d="M143.445 46.7942L140.78 48.832C140.082 47.8131 139.41 47.2119 138.233 47.2119C137.443 47.2119 136.868 47.487 136.868 48.185C136.868 48.7657 137.235 49.0409 138.187 49.4382L139.95 50.182C142.497 51.2468 143.873 52.5459 143.873 54.7977C143.873 57.8137 141.412 59.5764 138.269 59.5764C135.462 59.5764 133.256 58.2059 132.155 56.1426L134.85 54.1048C135.589 55.1237 136.542 56.0764 138.259 56.0764C139.323 56.0764 139.833 55.7045 139.833 54.9607C139.833 54.2169 139.349 54.0131 138.304 53.5495L136.73 52.8516C134.295 51.7868 132.853 50.3909 132.853 48.2359C132.853 45.5001 135.105 43.712 138.213 43.712C140.872 43.7069 142.563 45.0314 143.445 46.7942Z" fill="#3373BA"/>
<path d="M156.782 47.5838H150.159V49.693H154.892V53.035H150.159V55.6994H157.073V59.2962H146.17V44.0125H156.782V47.5838Z" fill="#3373BA"/>
<path d="M173.696 47.8131L170.64 49.8509C169.713 48.2767 168.459 47.3495 166.651 47.3495C164.215 47.3495 162.473 49.0663 162.473 51.6391C162.473 54.2118 164.215 55.8828 166.651 55.8828C168.459 55.8828 169.707 54.9556 170.64 53.3763L173.696 55.4447C173.024 56.7167 172.01 57.7754 170.767 58.501C169.525 59.2266 168.104 59.5903 166.666 59.5509C162.05 59.5509 158.408 56.1376 158.408 51.6136C158.408 47.0896 162.05 43.6814 166.691 43.6814C168.128 43.648 169.546 44.0173 170.784 44.7474C172.022 45.4776 173.031 46.5395 173.696 47.8131Z" fill="#3373BA"/>
<path d="M189.423 52.8006C189.423 56.9068 186.524 59.5764 182.647 59.5764C178.77 59.5764 175.877 56.9068 175.877 52.8006V43.9871H179.866V53.1012C179.85 53.4768 179.91 53.8518 180.042 54.2036C180.175 54.5555 180.378 54.8768 180.638 55.1483C180.898 55.4197 181.21 55.6358 181.556 55.7834C181.902 55.931 182.274 56.007 182.65 56.007C183.026 56.007 183.398 55.931 183.744 55.7834C184.09 55.6358 184.402 55.4197 184.662 55.1483C184.922 54.8768 185.125 54.5555 185.257 54.2036C185.39 53.8518 185.45 53.4768 185.434 53.1012V43.9871H189.423V52.8006Z" fill="#3373BA"/>
<path d="M201.482 59.2962L198.048 54.5379H196.403V59.2911H192.393V44.0074H198.4C201.762 44.0074 204.315 46.0453 204.315 49.2701C204.335 50.1458 204.122 51.0111 203.697 51.7774C203.273 52.5436 202.653 53.1834 201.9 53.631L205.94 59.3165L201.482 59.2962ZM196.387 51.0634H198.425C198.902 51.0634 199.36 50.8739 199.697 50.5367C200.034 50.1994 200.224 49.742 200.224 49.265C200.224 48.7881 200.034 48.3306 199.697 47.9934C199.36 47.6561 198.902 47.4666 198.425 47.4666H196.387V51.0634Z" fill="#3373BA"/>
<path d="M212.084 59.2962H208.095V44.0125H212.084V59.2962Z" fill="#3373BA"/>
<path d="M227.597 47.5838H223.012V59.3013H219.023V47.5838H214.438V43.9871H227.597V47.5838Z" fill="#3373BA"/>
<path d="M238.295 53.4272V59.2962H234.301V53.4731L229.043 43.9871H233.45L236.303 49.321L239.156 43.9871H243.543L238.295 53.4272Z" fill="#3373BA"/>
<path d="M98.9439 22.7887L89.575 17.3783C89.1878 17.1547 88.7485 17.037 88.3014 17.037C87.8543 17.037 87.415 17.1547 87.0278 17.3783L77.6589 22.7887C77.2724 23.0118 76.9513 23.3326 76.7278 23.7188C76.5043 24.1051 76.3862 24.5433 76.3853 24.9895V35.8103C76.3853 36.2575 76.503 36.6967 76.7265 37.0839C76.9501 37.4711 77.2717 37.7927 77.6589 38.0163L87.0278 43.4267C87.415 43.6502 87.8543 43.7679 88.3014 43.7679C88.7485 43.7679 89.1878 43.6502 89.575 43.4267L98.9439 38.0163C99.334 37.7946 99.6586 37.4739 99.8849 37.0866C100.111 36.6992 100.231 36.259 100.233 35.8103V24.9895C100.23 24.5418 100.11 24.1025 99.8836 23.7162C99.6573 23.3298 99.3332 23.0099 98.9439 22.7887Z" fill="#F89624"/>
<path d="M115.593 0.1689H61.0048C60.3292 0.1689 59.6813 0.437272 59.2036 0.914978C58.7259 1.39268 58.4575 2.04059 58.4575 2.71617V57.3042C58.4575 57.9798 58.7259 58.6277 59.2036 59.1054C59.6813 59.5831 60.3292 59.8515 61.0048 59.8515H83.9302V52.2708C83.9302 51.8237 83.8125 51.3844 83.5889 50.9972C83.3654 50.61 83.0438 50.2884 82.6566 50.0649L69.7114 42.6064C69.3241 42.3829 69.0026 42.0613 68.779 41.6741C68.5554 41.2869 68.4377 40.8476 68.4377 40.4005V20.4044C68.4377 19.9573 68.5554 19.518 68.779 19.1308C69.0026 18.7436 69.3241 18.4221 69.7114 18.1985L87.0328 8.20299C87.42 7.97942 87.8593 7.86172 88.3064 7.86172C88.7536 7.86172 89.1928 7.97942 89.5801 8.20299L106.902 18.1985C107.286 18.424 107.604 18.7464 107.825 19.1335C108.046 19.5205 108.161 19.9588 108.16 20.4044V40.4005C108.16 40.8476 108.042 41.2869 107.819 41.6741C107.595 42.0613 107.273 42.3829 106.886 42.6064L93.727 50.2024C93.3398 50.426 93.0183 50.7475 92.7947 51.1347C92.5711 51.522 92.4534 51.9612 92.4534 52.4083V59.8515H115.593C116.268 59.8515 116.916 59.5831 117.394 59.1054C117.872 58.6277 118.14 57.9798 118.14 57.3042V2.71617C118.14 2.04059 117.872 1.39268 117.394 0.914978C116.916 0.437272 116.268 0.1689 115.593 0.1689Z" fill="#F89624"/>
</svg>
